src/main/resources/icons/AllIcons/toolbarDecorator/addBlankLine_dark.svg

<!-- Copyright 2000-2021 JetBrains s.r.o. Use of this source code is governed by the Apache 2.0 license that can be found in the LICENSE file. -->
<svg xmlns="http://www.w3.org/2000/svg" width="16" height="16" viewBox="0 0 16 16">
  <g fill="none" fill-rule="evenodd">
    <rect width="2" height="10" x="5" y="3" fill="#AFB1B3"/>
    <rect width="2" height="10" x="5" y="3" fill="#AFB1B3" transform="rotate(90 6 8)"/>
    <path fill="#AFB1B3" d="M9.30000019,9.53999996 L11.8000002,16 L10.8000002,16 L8.30000019,9.54443359 L9.30000019,9.53999996 Z M12,11 L12.8320312,11 L12.8320312,11.9614258 C13.0546886,11.6860338 13.0734863,11 14.3701172,11 C16,11 16,12.5063453 16,12.980957 L16,16 L15,16 L15,13.0336914 C15,12.7465806 14.8678665,11.892752 14.088623,11.8813477 C13.1878052,11.8681641 13,13.2270492 13,13.534668 L13,16 L12,16 L12,11 Z"/>
  </g>
</svg>

<svg xmlns="http://www.w3.org/2000/svg" width="16" height="16" viewBox="0 0 16 16"><rect id="frame" width="16" height="16" fill="none"/><g fill="#AFB1B3" fill-rule="evenodd"><path d="M5 3h2v10H5z"/><path d="M11 7v2H1V7z"/><path d="M9.3 9.54L11.8 16h-1L8.3 9.544l1-.004zM12 11h.832v.961c.223-.275.241-.961 1.538-.961C16 11 16 12.506 16 12.981V16h-1v-2.966c0-.287-.132-1.141-.911-1.153-.901-.013-1.089 1.346-1.089 1.654V16h-1v-5z"/></g></svg>
